logos/elementary.svg

<?xml version="1.0" encoding="UTF-8" standalone="no"?>
<svg width="256px" height="256px" viewBox="0 0 256 256" version="1.1" xmlns="http://www.w3.org/2000/svg" xmlns:xlink="http://www.w3.org/1999/xlink" preserveAspectRatio="xMidYMid">
    <g>
        <path d="M128,8.12048841e-15 C57.3074286,8.12048841e-15 0,57.3074286 0,128 C0,198.692571 57.3074286,256 128,256 C198.692571,256 256,198.692571 256,128 C256,57.3074286 198.692571,0 128,0 L128,8.12048841e-15 Z M128,10.6605714 C181.741714,10.6605714 227.053714,46.7748571 240.941714,96.0548571 C229.010286,120.740571 211.958857,142.957714 191.250286,160.932571 C181.284571,169.554286 170.404571,177.243429 158.390857,182.656 C146.377143,188.068571 133.156571,191.140571 119.990857,190.390857 C110.116571,189.814857 100.333714,187.062857 91.7028571,182.253714 C114.651429,169.819429 135.341714,153.252571 152.283429,133.412571 C163.437714,120.384 173.129143,105.572571 176.877714,88.8594286 C178.779429,80.5028571 179.072,71.7622857 177.334857,63.3691429 C175.597714,54.976 171.721143,47.0034286 165.851429,40.7497143 C160.118857,34.6605714 152.594286,30.3268571 144.530286,28.1142857 C136.484571,25.8925714 127.890286,25.7188571 119.661714,27.2182857 C103.204571,30.2354286 88.4845714,39.7988571 76.7177143,51.6754286 C55.936,72.6125714 43.0902857,102.162286 45.4491429,131.565714 C46.6377143,146.267429 51.5565714,160.713143 59.9862857,172.8 C61.8788571,175.506286 63.9542857,178.075429 66.1668571,180.507429 C53.8697143,184.832 41.1154286,187.894857 28.224,189.622857 C17.1337143,171.702857 10.7245714,150.582857 10.7245714,127.972571 C10.7245714,63.1497143 63.2411429,10.6331429 128.045714,10.6331429 L128,10.6605714 Z M128.731429,34.3405714 C136.996571,34.3405714 145.298286,36.8457143 151.881143,41.8377143 C157.805714,46.3177143 162.212571,52.6628571 164.681143,59.6662857 C167.177143,66.6697143 167.817143,74.2674286 166.966857,81.6548571 C165.275429,96.4205714 157.824,109.961143 148.827429,121.792 C132.891429,142.729143 111.707429,159.488 88.1554286,171.227429 C85.7508571,172.416 83.3097143,173.568 80.8411429,174.665143 C75.7211429,170.185143 71.3325714,164.882286 67.968,158.939429 C60.9737143,146.541714 58.6697143,131.830857 60.0137143,117.668571 C61.3851429,103.497143 66.2308571,89.856 72.768,77.2114286 C80.3382857,62.5554286 90.6605714,48.6857143 105.106286,40.704 C112.329143,36.7085714 120.493714,34.304 128.740571,34.304 L128.731429,34.3405714 Z M244.278857,112.256 C244.964571,117.394286 245.330286,122.633143 245.330286,127.963429 C245.330286,192.768 192.832,245.302857 128.027429,245.302857 C91.6388571,245.302857 59.0902857,228.736 37.6045714,202.724571 C50.88,199.707429 63.8628571,195.364571 76.3154286,189.851429 C81.7737143,193.984 87.7805714,197.385143 94.1805714,199.835429 C112.585143,206.893714 133.494857,205.869714 152.128,199.424 C170.752,192.969143 187.282286,181.412571 201.682286,167.926857 C218.843429,151.890286 233.316571,132.982857 244.324571,112.246857 L244.278857,112.256 Z" fill="#333333"></path>
    </g>
</svg>

<svg preserveAspectRatio="xMidYMid" viewBox="0 0 256 256" xmlns="http://www.w3.org/2000/svg">
  <path fill="#333" d="M128 0C57.307 0 0 57.307 0 128s57.307 128 128 128 128-57.307 128-128S198.693 0 128 0Zm0 10.66c53.742 0 99.054 36.115 112.942 85.395-11.932 24.686-28.983 46.903-49.692 64.878-9.965 8.621-20.845 16.31-32.86 21.723-12.013 5.413-25.233 8.485-38.4 7.735-9.873-.576-19.656-3.328-28.287-8.137 22.948-12.435 43.639-29.001 60.58-48.841 11.155-13.029 20.846-27.84 24.595-44.554 1.901-8.356 2.194-17.097.457-25.49-1.737-8.393-5.614-16.366-11.484-22.62-5.732-6.088-13.257-10.422-21.32-12.635-8.046-2.221-16.64-2.395-24.87-.896-16.456 3.017-31.176 12.58-42.943 24.457-20.782 20.938-33.628 50.487-31.269 79.89 1.189 14.702 6.108 29.148 14.537 41.235a77.314 77.314 0 0 0 6.18 7.707 191.066 191.066 0 0 1-37.942 9.116c-11.09-17.92-17.5-39.04-17.5-61.65 0-64.823 52.517-117.34 117.322-117.34l-.046.028Zm.731 23.68c8.266 0 16.567 2.506 23.15 7.498 5.925 4.48 10.332 10.825 12.8 17.828 2.496 7.004 3.136 14.601 2.286 21.989-1.692 14.766-9.143 28.306-18.14 40.137-15.936 20.937-37.12 37.696-60.672 49.435a198.008 198.008 0 0 1-7.314 3.438c-5.12-4.48-9.508-9.783-12.873-15.726-6.994-12.397-9.298-27.108-7.954-41.27 1.371-14.172 6.217-27.813 12.754-40.458 7.57-14.656 17.893-28.525 32.338-36.507 7.223-3.995 15.388-6.4 23.635-6.4l-.01.037Zm115.548 77.916a118.646 118.646 0 0 1 1.051 15.707c0 64.805-52.498 117.34-117.303 117.34-36.388 0-68.937-16.567-90.422-42.578 13.275-3.018 26.258-7.36 38.71-12.874 5.459 4.133 11.466 7.534 17.866 9.984 18.404 7.059 39.314 6.035 57.947-.411 18.624-6.455 35.154-18.011 49.554-31.497a213.212 213.212 0 0 0 42.643-55.68l-.046.009Z"/>
</svg>
